X:29
T:PERLIRN- The Pearl of the Irish Nation
S:Joyce's 'Old Irish Folf Music and Songs'
Q:1/4=120
L:1/8
M:6/8
K:D mixolydian
G/E/|DEGA2A|A/2d3/2cB2G|EAG EDE|G3E2D|DEGA2A|\
AecB2G|EAG EDE|D3D2||B|cBcd2d|dBAB2G|\
GBd dBA|B3d2D|DEG A2A|A/2d3/2c B2G|EAG EDE|D3D2|]

